X:2
T:2. Rolled  —  2nds CW, 1358 quarter arpeggio
C:Fingering 1 2 3 4 ascending
M:4/4
L:1/4
Q:1/4=100
K:C clef=bass
"C""_8" C, E, G, C | "Dm""_8" D, F, A, D | "Em""_8" E, G, B, E | "F""_8" F, A, C F | "G""_8" G, B, D G | "Am""_8" A, C E A | "B°""_8" B, D F B | "C""_8" C, E, G, C |]

